X: 18873
T: In Memory Of Chris Langan
R: reel
M: 4/4
K: Gmajor
|:~B2 AG EDB,E|DGBA G2 FG|EB,~B,2 G,A,B,D|EGAB ~c2 Ac|
BGAG EDB,E|DGBA G2 FG|EB,~B,2 G,A,B,D|EGAc BAGA:|
|:~B3d ~c3A|~B2 AG EFGA|Bd~d2 dega|b2 ag ea~a2|
bg~g2 agfg|eB~B2 GA (3Bcd|ecdB cBAG|FGAc BAGA:|

